libs/icons/src/svg/form-field.svg

<svg width="16" height="16" viewBox="0 0 16 16" fill="none" xmlns="http://www.w3.org/2000/svg">
<g clip-path="url(#clip0_3_3330)">
<path fill-rule="evenodd" clip-rule="evenodd" d="M0.666667 0.66671C0.298477 0.66671 0 0.965187 0 1.33338V6.66671C0 7.0349 0.298477 7.33338 0.666667 7.33338H15.3333C15.7015 7.33338 16 7.0349 16 6.66671V1.33338C16 0.965187 15.7015 0.66671 15.3333 0.66671H0.666667ZM1.33333 6.00004V2.00004H14.6667V6.00004H1.33333ZM0.666667 8.66671C0.298477 8.66671 0 8.96519 0 9.33338V14.6667C0 15.0349 0.298477 15.3334 0.666667 15.3334H15.3333C15.7015 15.3334 16 15.0349 16 14.6667V9.33338C16 8.96519 15.7015 8.66671 15.3333 8.66671H0.666667ZM1.33333 14V10H14.6667V14H1.33333ZM2.66671 4.09537C2.66671 3.72718 2.96519 3.42871 3.33338 3.42871H6.00005C6.36824 3.42871 6.66671 3.72718 6.66671 4.09537C6.66671 4.46356 6.36824 4.76204 6.00005 4.76204H3.33338C2.96519 4.76204 2.66671 4.46356 2.66671 4.09537ZM3.33338 11.3333C2.96519 11.3333 2.66671 11.6318 2.66671 12C2.66671 12.3681 2.96519 12.6666 3.33338 12.6666H6.00005C6.36824 12.6666 6.66671 12.3681 6.66671 12C6.66671 11.6318 6.36824 11.3333 6.00005 11.3333H3.33338Z" fill="#202327"/>
</g>
<defs>
<clipPath id="clip0_3_3330">
<rect width="16" height="16" fill="white"/>
</clipPath>
</defs>
</svg>

<svg xmlns="http://www.w3.org/2000/svg" viewBox="0 0 16 16" class="sageicon"><path fill-rule="evenodd" d="M.667.667A.667.667 0 0 0 0 1.333v5.334c0 .368.298.666.667.666h14.666A.667.667 0 0 0 16 6.667V1.333a.667.667 0 0 0-.667-.666H.667ZM1.333 6V2h13.334v4H1.333ZM.667 8.667A.667.667 0 0 0 0 9.333v5.334c0 .368.298.666.667.666h14.666a.667.667 0 0 0 .667-.666V9.333a.667.667 0 0 0-.667-.666H.667ZM1.333 14v-4h13.334v4H1.333Zm1.334-9.905c0-.368.298-.666.666-.666H6a.667.667 0 1 1 0 1.333H3.333a.667.667 0 0 1-.666-.667Zm.666 7.238a.667.667 0 0 0 0 1.334H6a.667.667 0 0 0 0-1.334H3.333Z"/></svg>
